Numix/16x16/status/user-indeterminate-panel.svg

<?xml version="1.0" encoding="UTF-8" standalone="no"?>
<svg
   xmlns:dc="http://purl.org/dc/elements/1.1/"
   xmlns:cc="http://creativecommons.org/ns#"
   xmlns:rdf="http://www.w3.org/1999/02/22-rdf-syntax-ns#"
   xmlns:svg="http://www.w3.org/2000/svg"
   xmlns="http://www.w3.org/2000/svg"
   xmlns:sodipodi="http://sodipodi.sourceforge.net/DTD/sodipodi-0.dtd"
   xmlns:inkscape="http://www.inkscape.org/namespaces/inkscape"
   width="16"
   height="16"
   viewBox="0 0 16 16"
   id="svg2"
   version="1.1"
   inkscape:version="0.48.5 r10040"
   sodipodi:docname="user-indeterminate-panel.svg">
  <metadata
     id="metadata14">
    <rdf:RDF>
      <cc:Work
         rdf:about="">
        <dc:format>image/svg+xml</dc:format>
        <dc:type
           rdf:resource="http://purl.org/dc/dcmitype/StillImage" />
      </cc:Work>
    </rdf:RDF>
  </metadata>
  <defs
     id="defs12" />
  <sodipodi:namedview
     pagecolor="#ffffff"
     bordercolor="#666666"
     borderopacity="1"
     objecttolerance="10"
     gridtolerance="10"
     guidetolerance="10"
     inkscape:pageopacity="0"
     inkscape:pageshadow="2"
     inkscape:window-width="640"
     inkscape:window-height="480"
     id="namedview10"
     showgrid="false"
     showguides="true"
     inkscape:guide-bbox="true"
     inkscape:zoom="14.75"
     inkscape:cx="8"
     inkscape:cy="8"
     inkscape:window-x="0"
     inkscape:window-y="0"
     inkscape:window-maximized="0"
     inkscape:current-layer="svg2" />
  <path
     inkscape:connector-curvature="0"
     id="path8"
     d="m 7.601562,2.910156 c -3.3125,0 -6,2.441406 -6,5.453125 0,3.011719 2.6875,5.453125 6,5.453125 1.570313,0 3.003907,-0.550781 4.074219,-1.453125 l 4.324219,0 -2.675781,-2.433593 c 0.167969,-0.496094 0.277343,-1.015626 0.277343,-1.566407 0,-3.011719 -2.691406,-5.453125 -6,-5.453125 z m -4,5.089844 1.597657,0 0,1.453125 -1.597657,0 z m 3.199219,0 1.597657,0 0,1.453125 -1.597657,0 z M 10,8 l 1.601562,0 0,1.453125 -1.601562,0 z"
     style="fill:#ececec;fill-rule:evenodd;fill-opacity:1" />
</svg>

<svg width="16" xmlns="http://www.w3.org/2000/svg" height="16" viewBox="0 0 16 16" xmlns:xlink="http://www.w3.org/1999/xlink">
<g style="fill-rule:evenodd">
<path style="fill:#000;fill-opacity:.302" d="M 7.601562 3.636719 C 4.289062 3.636719 1.601562 6.078125 1.601562 9.089844 C 1.601562 12.101562 4.289062 14.546875 7.601562 14.546875 C 9.171875 14.546875 10.605469 13.992188 11.675781 13.089844 L 16 13.089844 L 13.324219 10.660156 C 13.492188 10.160156 13.601562 9.640625 13.601562 9.089844 C 13.601562 6.078125 10.910156 3.636719 7.601562 3.636719 Z M 3.601562 8.726562 L 5.199219 8.726562 L 5.199219 10.183594 L 3.601562 10.183594 Z M 6.800781 8.726562 L 8.398438 8.726562 L 8.398438 10.183594 L 6.800781 10.183594 Z M 10 8.726562 L 11.601562 8.726562 L 11.601562 10.183594 L 10 10.183594 Z "/>
<path style="fill:#dcdcdc" d="M 7.601562 2.910156 C 4.289062 2.910156 1.601562 5.351562 1.601562 8.363281 C 1.601562 11.375 4.289062 13.816406 7.601562 13.816406 C 9.171875 13.816406 10.605469 13.265625 11.675781 12.363281 L 16 12.363281 L 13.324219 9.929688 C 13.492188 9.433594 13.601562 8.914062 13.601562 8.363281 C 13.601562 5.351562 10.910156 2.910156 7.601562 2.910156 Z M 3.601562 8 L 5.199219 8 L 5.199219 9.453125 L 3.601562 9.453125 Z M 6.800781 8 L 8.398438 8 L 8.398438 9.453125 L 6.800781 9.453125 Z M 10 8 L 11.601562 8 L 11.601562 9.453125 L 10 9.453125 Z "/>
</g>
</svg>
